snowflake-thermometer.svg

<svg fill="currentColor" viewBox="0 0 24 24"><path d="M14.46 9.41 11 7.38V5.12l1.71-1.71L11.29 2 10 3.29 8.71 2 7.29 3.41 9 5.12v2.26L6.5 8.82l-2-1.13-.58-2.33L2 5.88l.47 1.77-1.77.47.52 1.93 2.33-.62 2 1.13v2.89l-2 1.13-2.33-.62-.52 1.93 1.77.47L2 18.12l1.93.52.62-2.33 2-1.13L9 16.62v2.26l-1.71 1.71L8.71 22 10 20.71 11.29 22l1.41-1.41-1.7-1.71v-2.26l3.46-2.01M7.5 10.56 10 9.11l2.5 1.45v2.88L10 14.89l-2.5-1.45M19 5c-1.11 0-2 .89-2 2v6.76c-.64.57-1 1.39-1 2.24 0 1.66 1.34 3 3 3s3-1.34 3-3c0-.85-.36-1.67-1-2.23V7c0-1.11-.89-2-2-2m0 1c.55 0 1 .45 1 1v1h-2V7c0-.55.45-1 1-1"/></svg>

<svg  viewBox="0 0 24 24" fill="currentColor"><path  d="M14.46 9.41L11 7.38V5.12L12.71 3.41L11.29 2L10 3.29L8.71 2L7.29 3.41L9 5.12V7.38L6.5 8.82L4.5 7.69L3.92 5.36L2 5.88L2.47 7.65L.7 8.12L1.22 10.05L3.55 9.43L5.55 10.56V13.45L3.55 14.58L1.22 13.96L.7 15.89L2.47 16.36L2 18.12L3.93 18.64L4.55 16.31L6.55 15.18L9 16.62V18.88L7.29 20.59L8.71 22L10 20.71L11.29 22L12.7 20.59L11 18.88V16.62L14.46 14.61M7.5 10.56L10 9.11L12.5 10.56V13.44L10 14.89L7.5 13.44M19 5C17.89 5 17 5.89 17 7V13.76C16.36 14.33 16 15.15 16 16C16 17.66 17.34 19 19 19S22 17.66 22 16C22 15.15 21.64 14.33 21 13.77V7C21 5.89 20.11 5 19 5M19 6C19.55 6 20 6.45 20 7V8H18V7C18 6.45 18.45 6 19 6"/></svg>
